src/assets/metronic/worbby/global/img/icon-general-account.svg

<?xml version="1.0" encoding="UTF-8"?>
<svg width="75px" height="75px" viewBox="0 0 75 75" version="1.1" xmlns="http://www.w3.org/2000/svg" xmlns:xlink="http://www.w3.org/1999/xlink">
    <!-- Generator: Sketch 41.2 (35397) - http://www.bohemiancoding.com/sketch -->
    <title>icon-general-account</title>
    <desc>Created with Sketch.</desc>
    <defs></defs>
    <g id="Worbby-Needor" stroke="none" stroke-width="1" fill="none" fill-rule="evenodd">
        <g id="Register" transform="translate(-150.000000, -162.000000)">
            <g id="icon-general-account" transform="translate(150.000000, 162.000000)">
                <circle id="Oval" fill="#F3F3F5" cx="25" cy="50" r="25"></circle>
                <path d="M74.5222917,63.6254502 C74.4172885,63.4603842 74.2972848,63.2953181 74.1622806,63.1602641 C64.8919956,53.8865546 54.0016607,44.2977191 49.8615333,40.7112845 C52.9216274,36.0294118 53.5666473,31.9477791 53.5666473,26.7857143 C53.5666473,12.0198079 41.5512778,0 26.7758234,0 C12.0153695,0 0,12.0198079 0,26.7857143 C0,33.9435774 2.7900858,40.6662665 7.84524126,45.7232893 C12.9003967,50.7803121 19.6356038,53.5714286 26.7908239,53.5714286 C31.9509826,53.5714286 36.031108,52.9261705 40.711252,49.864946 C44.2813617,53.9915966 53.8066547,64.8409364 63.151942,74.1746699 C63.2869462,74.3097239 63.4519513,74.4297719 63.6169563,74.5348139 C63.9019651,74.714886 64.5319845,75 65.4620131,75 C67.3220703,75 69.3921339,73.8595438 71.6272027,71.6386555 C75.962336,67.2869148 75.0923092,64.5858343 74.5222917,63.6254502 L74.5222917,63.6254502 Z M68.1770966,68.1872749 C67.052062,69.3127251 66.2870385,69.7929172 65.8520251,69.9879952 C54.6766814,58.7334934 43.4413359,45.5882353 42.9613211,45.0180072 C42.9613211,45.0180072 42.9613211,45.0180072 42.9613211,45.0030012 C42.8413175,44.8679472 42.7063133,44.7328932 42.5713092,44.6278511 C41.6262801,43.922569 40.3362404,43.997599 39.4812141,44.7779112 C35.086079,48.0792317 31.7409761,48.6944778 26.7908239,48.6944778 C20.940644,48.6944778 15.4354747,46.4135654 11.2953474,42.2719088 C7.15522004,38.1302521 4.87514992,32.6230492 4.87514992,26.7707083 C4.87514992,14.7058824 14.7004521,4.86194478 26.7908239,4.86194478 C38.8811957,4.86194478 48.7064978,14.6908764 48.7064978,26.7857143 C48.7064978,31.7226891 48.0914789,35.0540216 44.8363788,39.4207683 C44.7313756,39.5258103 44.6413728,39.6458583 44.5663705,39.7659064 C43.8913497,40.7863145 44.0863557,42.1668667 45.0163843,42.9621849 C45.1513885,43.0822329 58.6218027,54.5768307 69.9921524,65.8763505 C69.7671455,66.2965186 69.3021312,67.0618247 68.1770966,68.1872749 Z M17.1455273,17.1518607 C18.0905563,16.2064826 18.0905563,14.6608643 17.1455273,13.7004802 C16.2004982,12.740096 14.6554507,12.755102 13.6954212,13.7004802 C6.48019928,20.9183673 6.48019928,32.6530612 13.6954212,39.8709484 C14.1754359,40.3511405 14.7904548,40.5912365 15.4204742,40.5912365 C16.0504936,40.5912365 16.6655125,40.3511405 17.1455273,39.8709484 C18.0905563,38.9255702 18.0905563,37.379952 17.1455273,36.4195678 C11.835364,31.107443 11.835364,22.4639856 17.1455273,17.1518607 Z" id="Combined-Shape" fill="#FFB247"></path>
            </g>
        </g>
    </g>
</svg>

<svg xmlns="http://www.w3.org/2000/svg" width="75" height="75"><g fill="none" fill-rule="evenodd"><circle cx="25" cy="50" r="25" fill="#F3F3F5"/><path fill="#FFB247" d="M74.5223 63.6255c-.105-.165-.225-.3302-.36-.4652-9.2703-9.2737-20.1606-18.8626-24.3008-22.449 3.06-4.682 3.705-8.7635 3.705-13.9256C53.5666 12.0197 41.5514 0 26.776 0 12.0154 0 0 12.0198 0 26.7857c0 7.158 2.79 13.8806 7.8452 18.9376s11.7904 7.848 18.9456 7.848c5.1602 0 9.2403-.645 13.9205-3.7064 3.57 4.1266 13.0954 14.976 22.4406 24.3097.135.135.3.255.465.36.285.1802.915.4653 1.845.4653 1.86 0 3.93-1.1405 6.1652-3.3613 4.335-4.3518 3.465-7.053 2.895-8.0132zm-6.3452 4.5618c-1.125 1.1254-1.89 1.6056-2.325 1.8007-11.1753-11.2545-22.4107-24.3998-22.8907-24.97v-.015c-.12-.135-.255-.27-.39-.375-.945-.7054-2.235-.6304-3.09.15-4.3952 3.3012-7.7403 3.9165-12.6905 3.9165-5.8502 0-11.3553-2.281-15.4955-6.4226-4.14-4.1417-6.4202-9.649-6.4202-15.5013C4.875 14.706 14.7006 4.862 26.791 4.862c12.0904 0 21.9157 9.829 21.9157 21.9237 0 4.937-.615 8.2683-3.87 12.635-.105.105-.195.2252-.27.3452-.6752 1.0203-.48 2.401.45 3.1962.135.12 13.6053 11.6146 24.9757 22.9142-.225.42-.69 1.1854-1.815 2.311zM17.1456 17.152c.945-.9455.945-2.491 0-3.4515-.945-.9604-2.49-.9454-3.45 0-7.2153 7.218-7.2153 18.9526 0 26.1704.48.48 1.095.7202 1.725.7202.63 0 1.245-.24 1.725-.7203.945-.9454.945-2.491 0-3.4514-5.31-5.3122-5.31-13.9556 0-19.2677z"/></g></svg>
